X: 29284
T: New Reed, The
R: slip jig
M: 9/8
K: Dmixolydian
|:D2 d AFd AFd|D2 d AF/G/A GFE|D2 d AFd AFD|c2 c GEG cGE:|
|:F2 F F^EF GFE|FE/F/G/A/ BAG FED|F2 F FD/E/F/G/ AFD|cA/B/c GEG cGE:|

